assets/icons/moon.svg

<svg xml:space="preserve" fill="#ebebeb" style="fill-rule:evenodd;clip-rule:evenodd;stroke-linejoin:round;stroke-miterlimit:2" viewBox="0 0 328 347" xmlns="http://www.w3.org/2000/svg"><path d="M7330 4783c-321-24-659-177-890-403-267-262-412-613-413-1000 0-170 18-289 68-438 76-228 182-399 345-562 209-209 461-342 755-396 146-28 384-25 525 5 357 76 687 294 878 579 69 104 80 132 63 168-21 48-51 51-164 16-177-55-301-65-463-37-685 118-1070 810-804 1448 64 155 139 257 292 401 60 55 110 108 113 117 8 25-14 65-43 79-24 10-182 32-207 28-5-1-30-3-55-5m60-139c0-4-28-37-63-74-130-137-228-317-284-518-26-91-27-110-27-302s2-211 28-305c31-114 103-273 166-366 166-243 448-430 750-495 101-22 358-25 429-5 23 7 45 10 48 7 8-8-176-188-237-233-396-287-892-331-1321-118-137 67-226 131-340 245-245 244-372 549-373 895-1 640 448 1159 1091 1259 102 16 133 18 133 10" style="fill:#fff;fill-rule:nonzero" transform="matrix(.1 0 0 -.1 -560 512)"/></svg>

<?xml version="1.0" encoding="UTF-8" standalone="no"?>
<!DOCTYPE svg PUBLIC "-//W3C//DTD SVG 1.1//EN" "http://www.w3.org/Graphics/SVG/1.1/DTD/svg11.dtd">
<svg width="100%" height="100%" viewBox="0 0 328 347" version="1.1" xmlns="http://www.w3.org/2000/svg" xmlns:xlink="http://www.w3.org/1999/xlink" xml:space="preserve" xmlns:serif="http://www.serif.com/" style="fill-rule:evenodd;clip-rule:evenodd;stroke-linejoin:round;stroke-miterlimit:2;">
    <g transform="matrix(1,0,0,1,-560,-512)">
        <g transform="matrix(0.1,0,0,-0.1,0,1024)">
            <g>
                <path d="M7330,4783C7009,4759 6671,4606 6440,4380C6173,4118 6028,3767 6027,3380C6027,3210 6045,3091 6095,2942C6171,2714 6277,2543 6440,2380C6649,2171 6901,2038 7195,1984C7341,1956 7579,1959 7720,1989C8077,2065 8407,2283 8598,2568C8667,2672 8678,2700 8661,2736C8640,2784 8610,2787 8497,2752C8320,2697 8196,2687 8034,2715C7349,2833 6964,3525 7230,4163C7294,4318 7369,4420 7522,4564C7582,4619 7632,4672 7635,4681C7643,4706 7621,4746 7592,4760C7568,4770 7410,4792 7385,4788C7380,4787 7355,4785 7330,4783ZM7390,4644C7390,4640 7362,4607 7327,4570C7197,4433 7099,4253 7043,4052C7017,3961 7016,3942 7016,3750C7016,3558 7018,3539 7044,3445C7075,3331 7147,3172 7210,3079C7376,2836 7658,2649 7960,2584C8061,2562 8318,2559 8389,2579C8412,2586 8434,2589 8437,2586C8445,2578 8261,2398 8200,2353C7804,2066 7308,2022 6879,2235C6742,2302 6653,2366 6539,2480C6294,2724 6167,3029 6166,3375C6165,4015 6614,4534 7257,4634C7359,4650 7390,4652 7390,4644Z" style="fill:white;fill-rule:nonzero;"/>
            </g>
        </g>
    </g>
</svg>
